components/icon/combined/Arrow100.svg

<svg xmlns="http://www.w3.org/2000/svg" id="Arrow100"><path d="M12.93,6.2266,9.0234,2.32A1.0938,1.0938,0,1,0,7.4766,3.8672l2.039,2.039H1.8442a1.0938,1.0938,0,1,0,0,2.1876H9.5156l-2.039,2.039A1.0938,1.0938,0,0,0,9.0234,11.68L12.93,7.7734A1.0927,1.0927,0,0,0,12.93,6.2266Z" class="spectrum-UIIcon--large"/><path d="M9.6992,4.3867,6.624,1.2617A.8748.8748,0,1,0,5.3765,2.4883l1.61,1.6367H.9248a.875.875,0,0,0,0,1.75h6.062l-1.61,1.6367A.8748.8748,0,1,0,6.624,8.7383l3.0752-3.125A.8742.8742,0,0,0,9.6992,4.3867Z" class="spectrum-UIIcon--medium"/></svg>

<svg xmlns="http://www.w3.org/2000/svg" id="Arrow100"><path d="M12.93 6.227L9.023 2.32a1.094 1.094 0 10-1.546 1.547l2.039 2.04H1.844a1.094 1.094 0 100 2.187h7.672l-2.04 2.039a1.094 1.094 0 001.547 1.547l3.907-3.907a1.093 1.093 0 000-1.546z" class="spectrum-UIIcon--large"/><path d="M9.7 4.387L6.623 1.262a.875.875 0 10-1.247 1.226l1.61 1.637H.925a.875.875 0 000 1.75h6.062l-1.61 1.637a.875.875 0 101.247 1.226l3.075-3.125a.874.874 0 000-1.226z" class="spectrum-UIIcon--medium"/></svg>
